assets/svg/calculators_purple.svg

<svg fill="none" height="283" viewBox="0 0 283 283" width="283" xmlns="http://www.w3.org/2000/svg" xmlns:xlink="http://www.w3.org/1999/xlink"><clipPath id="a"><path d="m0 0h283v283h-283z"/></clipPath><g clip-path="url(#a)" fill="#7200a6"><path d="m165.083 224.042h-47.166c-4.213 0-8.106-2.247-10.212-5.896-2.107-3.648-2.107-8.143 0-11.791 2.106-3.648 5.999-5.896 10.212-5.896h47.166c4.213 0 8.106 2.248 10.212 5.896 2.107 3.648 2.107 8.143 0 11.791-2.106 3.649-5.999 5.896-10.212 5.896z"/><path d="m106.125 129.708c0 2.106-1.124 4.053-2.948 5.107-1.824 1.053-4.0718 1.053-5.8958 0-1.824-1.054-2.9479-3.001-2.9479-5.107 0-2.105 1.1239-4.052 2.9479-5.106 1.8241-1.053 4.0718-1.053 5.8958 0 1.824 1.054 2.948 3.001 2.948 5.106z"/><path d="m106.125 153.292c0 2.106-1.124 4.053-2.948 5.107-1.824 1.053-4.0718 1.053-5.8958 0-1.824-1.054-2.9479-3.001-2.9479-5.107 0-2.105 1.1239-4.052 2.9479-5.106 1.8241-1.053 4.0718-1.053 5.8958 0 1.824 1.054 2.948 3.001 2.948 5.106z"/><path d="m106.125 176.875c0 2.106-1.124 4.053-2.948 5.107-1.824 1.053-4.0718 1.053-5.8958 0-1.824-1.054-2.9479-3.001-2.9479-5.107 0-2.105 1.1239-4.052 2.9479-5.106 1.8241-1.053 4.0718-1.053 5.8958 0 1.824 1.054 2.948 3.001 2.948 5.106z"/><path d="m35.375 147.396c0 2.106-1.1239 4.053-2.9479 5.106s-4.0719 1.053-5.8958 0c-1.8241-1.054-2.948-3-2.948-5.106s1.1239-4.053 2.948-5.106c1.824-1.053 4.0719-1.053 5.8958 0 1.824 1.054 2.9479 3 2.9479 5.106z"/><path d="m35.375 170.98c0 2.106-1.1239 4.053-2.9479 5.106s-4.0719 1.053-5.8958 0c-1.8241-1.054-2.948-3-2.948-5.106s1.1239-4.053 2.948-5.106c1.824-1.053 4.0719-1.053 5.8958 0 1.824 1.054 2.9479 3 2.9479 5.106z"/><path d="m35.375 194.563c0 2.106-1.1239 4.053-2.9479 5.106s-4.0719 1.053-5.8958 0c-1.8241-1.054-2.948-3-2.948-5.106s1.1239-4.053 2.948-5.106c1.824-1.053 4.0719-1.053 5.8958 0 1.824 1.054 2.9479 3 2.9479 5.106z"/><path d="m182.771 135.604h-58.959c-2.105 0-4.052-1.124-5.106-2.948-1.053-1.824-1.053-4.072 0-5.896 1.054-1.824 3.001-2.948 5.106-2.948h58.959c2.106 0 4.052 1.124 5.106 2.948 1.053 1.824 1.053 4.072 0 5.896-1.054 1.824-3 2.948-5.106 2.948z"/><path d="m182.771 159.188h-58.959c-2.105 0-4.052-1.124-5.106-2.948-1.053-1.824-1.053-4.072 0-5.896 1.054-1.824 3.001-2.948 5.106-2.948h58.959c2.106 0 4.052 1.124 5.106 2.948 1.053 1.824 1.053 4.072 0 5.896-1.054 1.824-3 2.948-5.106 2.948z"/><path d="m182.771 182.771h-58.959c-2.105 0-4.052-1.124-5.106-2.948-1.053-1.824-1.053-4.072 0-5.896 1.054-1.824 3.001-2.948 5.106-2.948h58.959c2.106 0 4.052 1.124 5.106 2.948 1.053 1.824 1.053 4.072 0 5.896-1.054 1.824-3 2.948-5.106 2.948z"/><path d="m100.229 58.959h82.542c3.256 0 5.896 3.2566 5.896 5.8958v35.3752c0 3.256-2.64 5.896-5.896 5.896h-82.542c-3.2565 0-5.8957-3.257-5.8957-5.896v-35.3752c0-3.2566 2.6392-5.8958 5.8957-5.8958z"/><path d="m212.25 76.6465h41.271c3.256 0 5.896 3.2566 5.896 5.8958v35.3747c0 3.257-2.64 5.896-5.896 5.896h-41.271c-3.257 0-5.896-3.256-5.896-5.896v-35.3747c0-3.2566 2.639-5.8958 5.896-5.8958z"/><path d="m29.4792 76.6465h41.2708c3.2566 0 5.8958 3.2566 5.8958 5.8958v35.3747c0 3.257-2.6392 5.896-5.8958 5.896h-41.2708c-3.2566 0-5.8959-3.256-5.8959-5.896v-35.3747c0-3.2566 2.6393-5.8958 5.8959-5.8958z"/><path d="m265.312 47.167h-47.166c0-4.691-1.864-9.1902-5.181-12.5065-3.316-3.3172-7.816-5.181-12.507-5.181h-117.9163c-4.691 0-9.1902 1.8636-12.5065 5.181-3.3172 3.3163-5.181 7.8158-5.181 12.5065h-47.1667c-4.691 0-9.19019 1.8636-12.50648 5.181-3.31723 3.3163-5.18102 7.8158-5.18102 12.5065v153.2915c0 4.691 1.86363 9.19 5.18102 12.507 3.31629 3.317 7.81578 5.181 12.50648 5.181h47.1667c0 4.691 1.8636 9.19 5.181 12.506 3.3163 3.317 7.8157 5.181 12.5065 5.181h117.9163c4.691 0 9.191-1.863 12.507-5.181 3.317-3.316 5.181-7.816 5.181-12.506h47.166c4.691 0 9.191-1.864 12.507-5.181 3.317-3.317 5.181-7.816 5.181-12.507v-153.2915c0-4.691-1.864-9.1902-5.181-12.5065-3.316-3.3172-7.816-5.181-12.507-5.181zm-247.6245 176.875c-1.5633 0-3.063-.621-4.1686-1.727-1.1064-1.106-1.7273-2.606-1.7273-4.169v-153.2916c0-1.5633.6209-3.063 1.7273-4.1685 1.1055-1.1064 2.6053-1.7273 4.1686-1.7273h47.1667v82.5414h-11.7917c-2.1059 0-4.0526 1.124-5.1063 2.948-1.0529 1.824-1.0529 4.072 0 5.896 1.0539 1.824 3.0005 2.948 5.1063 2.948h11.7917v11.792h-11.7917c-2.1059 0-4.0526 1.123-5.1063 2.947-1.0529 1.825-1.0529 4.072 0 5.896 1.0539 1.824 3.0005 2.948 5.1063 2.948h11.7917v11.792h-11.7917c-2.1059 0-4.0526 1.124-5.1063 2.948-1.0529 1.824-1.0529 4.072 0 5.896 1.0539 1.824 3.0005 2.948 5.1063 2.948h11.7917v23.583zm188.6665 11.792c0 1.563-.621 3.063-1.727 4.168-1.106 1.107-2.605 1.728-4.169 1.728h-117.9164c-1.5633 0-3.063-.621-4.1686-1.728-1.1064-1.105-1.7273-2.605-1.7273-4.168v-188.667c0-1.5633.6209-3.063 1.7273-4.1686 1.1055-1.1064 2.6053-1.7273 4.1686-1.7273h117.9164c1.564 0 3.063.6209 4.169 1.7273 1.106 1.1055 1.727 2.6053 1.727 4.1686zm64.854-17.688c0 1.564-.621 3.063-1.727 4.169-1.105 1.106-2.605 1.727-4.169 1.727h-47.166v-23.583h35.375c2.106 0 4.052-1.124 5.106-2.948 1.053-1.824 1.053-4.072 0-5.896-1.054-1.824-3-2.948-5.106-2.948h-35.375v-11.792h35.375c2.106 0 4.052-1.124 5.106-2.948 1.053-1.824 1.053-4.071 0-5.895-1.054-1.824-3-2.948-5.106-2.948h-35.375v-11.792h35.375c2.106 0 4.052-1.124 5.106-2.948 1.053-1.824 1.053-4.072 0-5.896-1.054-1.824-3-2.948-5.106-2.948h-35.375v-82.5413h47.166c1.564 0 3.063.6209 4.169 1.7273 1.106 1.1055 1.727 2.6053 1.727 4.1686z"/></g></svg>

<svg width="283" height="283" viewBox="0 0 283 283" fill="none" xmlns="http://www.w3.org/2000/svg">
<g clip-path="url(#clip0_613_899)">
<path d="M165.083 224.042H117.917C113.704 224.042 109.811 221.795 107.705 218.146C105.598 214.498 105.598 210.003 107.705 206.355C109.811 202.707 113.704 200.459 117.917 200.459H165.083C169.296 200.459 173.189 202.707 175.295 206.355C177.402 210.003 177.402 214.498 175.295 218.146C173.189 221.795 169.296 224.042 165.083 224.042Z" fill="#7200A6"/>
<path d="M106.125 129.708C106.125 131.814 105.001 133.761 103.177 134.815C101.353 135.868 99.1052 135.868 97.2812 134.815C95.4572 133.761 94.3333 131.814 94.3333 129.708C94.3333 127.603 95.4572 125.656 97.2812 124.602C99.1053 123.549 101.353 123.549 103.177 124.602C105.001 125.656 106.125 127.603 106.125 129.708Z" fill="#7200A6"/>
<path d="M106.125 153.292C106.125 155.398 105.001 157.345 103.177 158.399C101.353 159.452 99.1052 159.452 97.2812 158.399C95.4572 157.345 94.3333 155.398 94.3333 153.292C94.3333 151.187 95.4572 149.24 97.2812 148.186C99.1053 147.133 101.353 147.133 103.177 148.186C105.001 149.24 106.125 151.187 106.125 153.292Z" fill="#7200A6"/>
<path d="M106.125 176.875C106.125 178.981 105.001 180.928 103.177 181.982C101.353 183.035 99.1052 183.035 97.2812 181.982C95.4572 180.928 94.3333 178.981 94.3333 176.875C94.3333 174.77 95.4572 172.823 97.2812 171.769C99.1053 170.716 101.353 170.716 103.177 171.769C105.001 172.823 106.125 174.77 106.125 176.875Z" fill="#7200A6"/>
<path d="M35.375 147.396C35.375 149.502 34.2511 151.449 32.4271 152.502C30.6031 153.555 28.3552 153.555 26.5313 152.502C24.7072 151.448 23.5833 149.502 23.5833 147.396C23.5833 145.29 24.7072 143.343 26.5313 142.29C28.3553 141.237 30.6032 141.237 32.4271 142.29C34.2511 143.344 35.375 145.29 35.375 147.396Z" fill="#7200A6"/>
<path d="M35.375 170.98C35.375 173.086 34.2511 175.033 32.4271 176.086C30.6031 177.139 28.3552 177.139 26.5313 176.086C24.7072 175.032 23.5833 173.086 23.5833 170.98C23.5833 168.874 24.7072 166.927 26.5313 165.874C28.3553 164.821 30.6032 164.821 32.4271 165.874C34.2511 166.928 35.375 168.874 35.375 170.98Z" fill="#7200A6"/>
<path d="M35.375 194.563C35.375 196.669 34.2511 198.616 32.4271 199.669C30.6031 200.722 28.3552 200.722 26.5313 199.669C24.7072 198.615 23.5833 196.669 23.5833 194.563C23.5833 192.457 24.7072 190.51 26.5313 189.457C28.3553 188.404 30.6032 188.404 32.4271 189.457C34.2511 190.511 35.375 192.457 35.375 194.563Z" fill="#7200A6"/>
<path d="M182.771 135.604H123.812C121.707 135.604 119.76 134.48 118.706 132.656C117.653 130.832 117.653 128.584 118.706 126.76C119.76 124.936 121.707 123.812 123.812 123.812H182.771C184.877 123.812 186.823 124.936 187.877 126.76C188.93 128.584 188.93 130.832 187.877 132.656C186.823 134.48 184.877 135.604 182.771 135.604Z" fill="#7200A6"/>
<path d="M182.771 159.188H123.812C121.707 159.188 119.76 158.064 118.706 156.24C117.653 154.416 117.653 152.168 118.706 150.344C119.76 148.52 121.707 147.396 123.812 147.396H182.771C184.877 147.396 186.823 148.52 187.877 150.344C188.93 152.168 188.93 154.416 187.877 156.24C186.823 158.064 184.877 159.188 182.771 159.188Z" fill="#7200A6"/>
<path d="M182.771 182.771H123.812C121.707 182.771 119.76 181.647 118.706 179.823C117.653 177.999 117.653 175.751 118.706 173.927C119.76 172.103 121.707 170.979 123.812 170.979H182.771C184.877 170.979 186.823 172.103 187.877 173.927C188.93 175.751 188.93 177.999 187.877 179.823C186.823 181.647 184.877 182.771 182.771 182.771Z" fill="#7200A6"/>
<path d="M100.229 58.959H182.771C186.027 58.959 188.667 62.2156 188.667 64.8548V100.23C188.667 103.486 186.027 106.126 182.771 106.126H100.229C96.9725 106.126 94.3333 102.869 94.3333 100.23V64.8548C94.3333 61.5982 96.9725 58.959 100.229 58.959Z" fill="#7200A6"/>
<path d="M212.25 76.6465H253.521C256.777 76.6465 259.417 79.9031 259.417 82.5423V117.917C259.417 121.174 256.777 123.813 253.521 123.813H212.25C208.993 123.813 206.354 120.557 206.354 117.917V82.5423C206.354 79.2857 208.993 76.6465 212.25 76.6465Z" fill="#7200A6"/>
<path d="M29.4792 76.6465H70.75C74.0066 76.6465 76.6458 79.9031 76.6458 82.5423V117.917C76.6458 121.174 74.0066 123.813 70.75 123.813H29.4792C26.2226 123.813 23.5833 120.557 23.5833 117.917V82.5423C23.5833 79.2857 26.2226 76.6465 29.4792 76.6465Z" fill="#7200A6"/>
<path d="M265.312 47.167H218.146C218.146 42.476 216.282 37.9768 212.965 34.6605C209.649 31.3433 205.149 29.4795 200.458 29.4795H82.5417C77.8507 29.4795 73.3515 31.3431 70.0352 34.6605C66.718 37.9768 64.8542 42.4763 64.8542 47.167H17.6875C12.9965 47.167 8.49731 49.0306 5.18102 52.348C1.86379 55.6643 0 60.1638 0 64.8545V218.146C0 222.837 1.86363 227.336 5.18102 230.653C8.49731 233.97 12.9968 235.834 17.6875 235.834H64.8542C64.8542 240.525 66.7178 245.024 70.0352 248.34C73.3515 251.657 77.8509 253.521 82.5417 253.521H200.458C205.149 253.521 209.649 251.658 212.965 248.34C216.282 245.024 218.146 240.524 218.146 235.834H265.312C270.003 235.834 274.503 233.97 277.819 230.653C281.136 227.336 283 222.837 283 218.146V64.8545C283 60.1635 281.136 55.6643 277.819 52.348C274.503 49.0308 270.003 47.167 265.312 47.167ZM17.6875 224.042C16.1242 224.042 14.6245 223.421 13.5189 222.315C12.4125 221.209 11.7916 219.709 11.7916 218.146V64.8544C11.7916 63.2911 12.4125 61.7914 13.5189 60.6859C14.6244 59.5795 16.1242 58.9586 17.6875 58.9586H64.8542V141.5H53.0625C50.9566 141.5 49.0099 142.624 47.9562 144.448C46.9033 146.272 46.9033 148.52 47.9562 150.344C49.0101 152.168 50.9567 153.292 53.0625 153.292H64.8542V165.084H53.0625C50.9566 165.084 49.0099 166.207 47.9562 168.031C46.9033 169.856 46.9033 172.103 47.9562 173.927C49.0101 175.751 50.9567 176.875 53.0625 176.875H64.8542V188.667H53.0625C50.9566 188.667 49.0099 189.791 47.9562 191.615C46.9033 193.439 46.9033 195.687 47.9562 197.511C49.0101 199.335 50.9567 200.459 53.0625 200.459H64.8542V224.042L17.6875 224.042ZM206.354 235.834C206.354 237.397 205.733 238.897 204.627 240.002C203.521 241.109 202.022 241.73 200.458 241.73H82.5416C80.9783 241.73 79.4786 241.109 78.373 240.002C77.2666 238.897 76.6457 237.397 76.6457 235.834V47.167C76.6457 45.6037 77.2666 44.104 78.373 42.9984C79.4785 41.892 80.9783 41.2711 82.5416 41.2711H200.458C202.022 41.2711 203.521 41.892 204.627 42.9984C205.733 44.1039 206.354 45.6037 206.354 47.167V235.834ZM271.208 218.146C271.208 219.71 270.587 221.209 269.481 222.315C268.376 223.421 266.876 224.042 265.312 224.042H218.146V200.459H253.521C255.627 200.459 257.573 199.335 258.627 197.511C259.68 195.687 259.68 193.439 258.627 191.615C257.573 189.791 255.627 188.667 253.521 188.667H218.146V176.875H253.521C255.627 176.875 257.573 175.751 258.627 173.927C259.68 172.103 259.68 169.856 258.627 168.032C257.573 166.208 255.627 165.084 253.521 165.084H218.146V153.292H253.521C255.627 153.292 257.573 152.168 258.627 150.344C259.68 148.52 259.68 146.272 258.627 144.448C257.573 142.624 255.627 141.5 253.521 141.5H218.146V58.9587H265.312C266.876 58.9587 268.375 59.5796 269.481 60.686C270.587 61.7915 271.208 63.2913 271.208 64.8546V218.146Z" fill="#7200A6"/>
</g>
<defs>
<clipPath id="clip0_613_899">
<rect width="283" height="283" fill="white"/>
</clipPath>
</defs>
</svg>
